images/icons/linkedin.svg

<svg width="56" height="64" viewBox="0 0 56 64" fill="none" xmlns="http://www.w3.org/2000/svg">
<path d="M52 4H3.9875C1.7875 4 0 5.8125 0 8.0375V55.9625C0 58.1875 1.7875 60 3.9875 60H52C54.2 60 56 58.1875 56 55.9625V8.0375C56 5.8125 54.2 4 52 4ZM16.925 52H8.625V25.275H16.9375V52H16.925ZM12.775 21.625C10.1125 21.625 7.9625 19.4625 7.9625 16.8125C7.9625 14.1625 10.1125 12 12.775 12C15.425 12 17.5875 14.1625 17.5875 16.8125C17.5875 19.475 15.4375 21.625 12.775 21.625ZM48.0375 52H39.7375V39C39.7375 35.9 39.675 31.9125 35.425 31.9125C31.1 31.9125 30.4375 35.2875 30.4375 38.775V52H22.1375V25.275H30.1V28.925H30.2125C31.325 26.825 34.0375 24.6125 38.075 24.6125C46.475 24.6125 48.0375 30.15 48.0375 37.35V52Z" fill="black"/>
</svg>

<svg width="56" height="64" viewBox="0 0 56 64" fill="none" xmlns="http://www.w3.org/2000/svg"><path d="M52 4H3.987C1.787 4 0 5.813 0 8.037v47.925C0 58.188 1.788 60 3.987 60H52c2.2 0 4-1.813 4-4.038V8.038C56 5.813 54.2 4 52 4ZM16.925 52h-8.3V25.275h8.313V52h-.013Zm-4.15-30.375a4.815 4.815 0 0 1-4.813-4.813c0-2.65 2.15-4.812 4.813-4.812a4.823 4.823 0 0 1 4.812 4.813 4.807 4.807 0 0 1-4.812 4.812ZM48.038 52h-8.3V39c0-3.1-.063-7.087-4.313-7.087-4.325 0-4.987 3.375-4.987 6.862V52h-8.3V25.275H30.1v3.65h.112c1.113-2.1 3.826-4.313 7.863-4.313 8.4 0 9.962 5.538 9.962 12.738V52Z" fill="#000"/></svg>
